packages/astro-components-stencil/src/icons/battery-charging-80.svg

<svg width="24" height="24" viewBox="0 0 24 24" fill="none" xmlns="http://www.w3.org/2000/svg">
<path fill-rule="evenodd" clip-rule="evenodd" d="M13 2C13.5107 2 13.9352 2.38801 13.9932 2.8838L14 3V4H15.67C16.3571 4 16.929 4.53149 16.9939 5.20262L17 5.33V20.67C17 21.3571 16.4685 21.929 15.789 21.9939L15.66 22H8.33C7.64294 22 7.07104 21.4685 7.00613 20.7974L7 20.67V5.33C7 4.64294 7.53149 4.07104 8.20262 4.00613L8.33 4H10V3C10 2.48929 10.388 2.0648 10.8838 2.00676L11 2H13ZM13 3H11V5H8.33C8.1745 5 8.03847 5.11659 8.00689 5.2648L8 5.33L7.999 9L9.668 8.99918L8.17885 11.7886L8.12287 11.9056C7.70184 12.8861 8.40814 13.9997 9.50096 13.9997L9.67 13.999L9.67096 16.4997C9.67096 18.0582 11.7622 18.581 12.4933 17.2103L15.1631 12.2107L15.219 12.0938C15.6394 11.1131 14.9239 9.99969 13.841 9.99969L13.67 9.999L13.669 8.99918L16 9V5.33C16 5.1745 15.8834 5.03847 15.7352 5.00689L15.67 5H13V3ZM12.671 10.9997V7.49969C12.671 6.97969 11.971 6.80969 11.731 7.25969L9.06096 12.2597C8.88096 12.5997 9.12096 12.9997 9.50096 12.9997H10.671V16.4997C10.671 17.0197 11.371 17.1897 11.611 16.7397L14.281 11.7397C14.461 11.3997 14.211 10.9997 13.841 10.9997H12.671Z" fill="black"/>
</svg>

<svg xmlns="http://www.w3.org/2000/svg" viewBox="0 0 24 24"><g xmlns="http://www.w3.org/2000/svg" id="battery-charging-80" fill-rule="nonzero">
            <path d="M13 2c.51 0 .935.388.993.884L14 3v1h1.67c.687 0 1.259.531 1.324 1.203L17 5.33v15.34c0 .687-.531 1.259-1.211 1.324L15.66 22H8.33a1.337 1.337 0 01-1.324-1.203L7 20.67V5.33c0-.687.531-1.259 1.203-1.324L8.33 4H10V3c0-.51.388-.935.884-.993L11 2h2zm0 1h-2v2H8.33a.337.337 0 00-.323.265L8 5.33 7.999 9h1.669l-1.49 2.789-.055.117A1.5 1.5 0 009.5 14l.169-.001.001 2.5c0 1.56 2.091 2.082 2.822.711l2.67-5 .056-.116c.42-.98-.295-2.094-1.378-2.094l-.171-.001-.001-1L16 9V5.33a.337.337 0 00-.265-.323L15.67 5H13V3zm-.329 4.5V11h1.17c.37 0 .62.4.44.74l-2.67 5c-.24.45-.94.28-.94-.24V13h-1.17a.5.5 0 01-.44-.74l2.67-5c.24-.45.94-.28.94.24z"/>
        </g></svg>
